!!!OTL: BLUEHE LIEBES VEILCHEN DAS ICH SELBST ERZOG
!!!ARE: Europa, Mitteleuropa, Deutschland
!!!SCT: B0371A
!!!YEM: Copyright 1995, estate of Helmut Schaffrath.
**kern
*ICvox
*Ivox
*M6/8
*k[f#]
*G:
=1
{4g
8b
4g
8b
=2
4dd
8cc
4a
8r}
=3
{8b
8cc
8a
4g
16b
16a
=4
4.g
4.r}
=5
{4g
8b
4g
8b
=6
4dd
8cc
4a
8r}
=7
{8b
8cc
8a
4g
16b
16a
=8
4.g
4.r}
=9
{4dd
8dd
4dd
16b
16g
=10
4f#
16g
16a
4g
8r}
=11
{8a
8b
8cc
8b
8g
8dd
=12
4dd
8b
4a
8r}
=13
{4g
8b
4g
8b
=14
4.dd
4cc
8r}
=15
{8b
8cc
8a
4g
16b
16a
=16
4.g
4.r}
==
!!!AGN: Liebes - Lied, Liebes - Lust
!!!ONB: ESAC (Essen Associative Code) Database: BOEHME
!!!AMT: compound duple
!!!AIN: vox
!!!EED: Helmut Schaffrath
!!!EEV: 1.0
*-
